!!!COM:      Bach, Johann Sebastian
!!!CDT:      1685/03/31/-1750/07/28/
!!!OPR@@GER: Das wohltemperirte Clavier
!!!OVM@@GER: Band I
!!!OPR@ENG:  Well-Tempered Clavier
!!!OVM@ENG:  Book I
!!!OTL:      Prelude
!!!OKY:      E major
!!!ONM:      no. 9
!!!SCT:      BWV 854
!!!OMV:      1
**kern	**kern	**kern	**kern
*clefF4	*clefF4	*	*clefG2
*k[f#c#g#d#]	*k[f#c#g#d#]	*	*k[f#c#g#d#]
*E:	*E:	*	*E:
*M12/8	*M12/8	*	*M12/8
*MM144	*MM144	*MM144	*MM144
=1-	=1-	=1-	=1-
[1.E	4r	1.ryy	8e
.	.	.	8g#
.	8r	.	8b
.	4.G#	.	8ee
.	.	.	8dd#
.	.	.	8ee
.	[4.A	.	8cc#W
.	.	.	8b
.	.	.	8cc#
.	8A]	.	4.ee
.	8G#	.	.
.	8F#	.	.
=2	=2	=2	=2
2.E_	[4.G#	1.ryy	8bW
.	.	.	8a
.	.	.	8b
.	8G#]	.	4.ee
.	8A	.	.
.	8G#	.	.
4.E]	2.F#	.	8a
.	.	.	8b
.	.	.	8cc#
4.D#	.	.	8b
.	.	.	8cc#
.	.	.	8a
=3	=3	=3	=3
8E	8E	1.ryy	8g#
8G#	8ryy	.	8b
8B	8ryy	.	8ee
8e	4ryy	.	[4.gg#
8d#	.	.	.
8e	8ryy	.	.
2.A#	8r	.	8gg#]
.	8r	.	8ff#
.	8c#	.	8ee
.	4.f#	.	8dd#
.	.	.	8ee
.	.	.	8cc#
=4	=4	=4	=4
8BB	2.ryy	1.ryy	[2.dd#w
8D#	.	.	.
8F#	.	.	.
8B	.	.	.
8A#	.	.	.
8B	.	.	.
2.E	8r	.	8dd#]
.	8r	.	8ee
.	8B	.	8ff#
.	[4.e	.	8gg#
.	.	.	8cc#
.	.	.	8ee
=5	=5	=5	=5
[1.F#	4.e]	1.ryy	8f#
.	.	.	8a#
.	.	.	8cc#
.	[2.d#	.	8ff#
.	.	.	8ee
.	.	.	8ff#
.	.	.	8g#
.	.	.	8b
.	.	.	8dd#
.	8d#]	.	4.ee
.	8c#	.	.
.	8B	.	.
=6	=6	=6	=6
4.F#_	[2.A#	1.ryy	8f#
.	.	.	8a#
.	.	.	8cc#
4F#]	.	.	8ee
.	.	.	8dd#
8C#	.	.	8ee
[4.Dn	4.A#]	.	8f#
.	.	.	8a#
.	.	.	8cc#
8D]	[4.B	.	[4.ddn
8E	.	.	.
8F#	.	.	.
=7	=7	=7	=7
2.Gn	8B]	1.ryy	8dd]
.	8c#	.	8ee
.	8dn	.	8ddn
.	[2.e	.	8cc#
.	.	.	8dd
.	.	.	8b
[4.F#	.	.	8a#w
.	.	.	8g#
.	.	.	8f#
8F#]	8e]	.	8ggn
8G#	8d#	.	8ff#
8A#	8c#	.	8ee#
=8	=8	=8	=8
4B	[4.B	1.ryy	8een
.	.	.	8dd#
8E#	.	.	8ddn
4.F#	8B]	.	16cc#
.	.	.	16dd#
.	8A#	.	8ee
.	8e	.	8a#
8BB	2.d#	.	[2.b
8D#	.	.	.
8F#	.	.	.
8B	.	.	.
8An	.	.	.
8B	.	.	.
=9	=9	=9	=9
[4.G#	2.ryy	1.ryy	8b]
.	.	.	8dd#
.	.	.	8ff#
8G#]	.	.	8bb
8F#	.	.	8aa
8G#	.	.	8bb
2.E#	8r	.	8cc#
.	8G#	.	8ee#
.	8B	.	8gg#
.	8dn	.	[4.bb
.	8B	.	.
.	[8c#	.	.
=10	=10	=10	=10
4.F#	4.c#]	1.ryy	8bb]
.	.	.	8gg#
.	.	.	[8aa
4.Dn	4.B	.	8aa]
.	.	.	8ff#
.	.	.	[8gg#
4.D#	4.B#	.	8gg#]
.	.	.	8ee#
.	.	.	8ff#
4.C#	4.c#	.	16ee#
.	.	.	16ff#
.	.	.	8gg#
.	.	.	8cc#
=11	=11	=11	=11
*	*	*staff:8	*
*	*	*clefG2	*
*	*	*k[f#c#g#d#]	*
2.BB	8r	8r	[2.ddn
.	8Dn	8b	.
.	8E#	8g#	.
.	8G#	8e#	.
.	8B	8g#	.
.	8A	8f#	.
2.ryy	8B	8g#	4.dd_
.	8G#	8b	.
.	8F#	8a	.
.	16G#	[4.b	8dd]
.	16A	.	.
.	8B	.	8dd
.	8E#X	.	8cc#
=12	=12	=12	=12
4.F#	1.ryy	8b]	[4.cc#
.	.	8a	.
.	.	8g#	.
4.AA	.	[4.f#	8cc#]
.	.	.	8b
.	.	.	8a
4.BB	.	4.f#]	8g#
.	.	.	8a
.	.	.	[8b
4.C#	.	4.e#	8b]
.	.	.	8a
.	.	.	8g#
=13	=13	=13	=13
8FF#	1.ryy	[4.f#	[4.a
8AA	.	.	.
8C#	.	.	.
8F#	.	4f#]	8a]
8E	.	.	8b
8F#	.	8e	8g#
8BB	.	4.d#	[4.a
8D#	.	.	.
8F#	.	.	.
8B	.	4r	8a]
8A	.	.	16b
.	.	.	16a
8B	.	8r	16g#
.	.	.	16f#
=14	=14	=14	=14
8E	1.ryy	1.ryy	16g#
.	.	.	16f#
8G#	.	.	16e
.	.	.	16f#
8B	.	.	16g#
.	.	.	16a
8e	.	.	16b
.	.	.	16a
8dn	.	.	16g#
.	.	.	16a
8c#	.	.	16b
.	.	.	16cc#
4B	.	.	16ddn
.	.	.	16cc#
.	.	.	16b
.	.	.	16a
8A	.	.	16g#
.	.	.	16f#
16G#	.	.	8e
16dn	.	.	.
16c#	.	.	8r
16B	.	.	.
16A	.	.	8r
16G#	.	.	.
=15	=15	=15	=15
*	*staff:5	*	*
[1.A	4r	1.ryy	8a
.	.	.	8cc#
.	8r	.	8ee
.	4.c#	.	8aa
.	.	.	8gg#
.	.	.	8aa
.	[4.dn	.	8ff#W
.	.	.	8ee
.	.	.	8ff#
.	8d]	.	4.aa
.	8c#	.	.
.	8B	.	.
=16	=16	=16	=16
2.A_	[4.c#	1.ryy	8eeW
.	.	.	8ddn
.	.	.	8ee
.	8c#]	.	4.aa
.	8dn	.	.
.	8c#	.	.
4.A]	2.B	.	8ddn
.	.	.	8ee
.	.	.	8ff#
4.G#	.	.	8ee
.	.	.	8ff#
.	.	.	8dd
=17	=17	=17	=17
8AA	2.ryy	1.ryy	8cc#
8C#	.	.	8a
8E	.	.	8b
8A	.	.	[4.cc#
8G#	.	.	.
8A	.	.	.
2.D#X	8r	.	8cc#]
.	8r	.	8b
.	8F#	.	8a
.	4.B	.	8g#
.	.	.	8a
.	.	.	8f#
=18	=18	=18	=18
8EE	2.ryy	1.ryy	8g#
8GG#	.	.	8e
8BB	.	.	8f#
8E	.	.	[4.g#
8D#	.	.	.
8E	.	.	.
2.AA	8r	.	8g#]
.	8r	.	8a
.	8E	.	8b
.	[4.A	.	8cc#
.	.	.	8f#
.	.	.	8a
=19	=19	=19	=19
[1.BB	4.A]	1.ryy	8B
.	.	.	8d#
.	.	.	8f#
.	[2.G#	.	8b
.	.	.	8a
.	.	.	8b
.	.	.	8c#
.	.	.	8e
.	.	.	8g#
.	8G#]	.	4.a
.	8F#	.	.
.	8E	.	.
=20	=20	=20	=20
4.BB_	[2.D#	1.ryy	8B
.	.	.	8d#
.	.	.	8f#
4BB]	.	.	8a
.	.	.	8g#
8FF#	.	.	8a
[4.GGn	4.D#]	.	8B
.	.	.	8d#
.	.	.	8f#
8GG]	[4.E	.	[4.gn
8AA	.	.	.
8BB	.	.	.
=21	=21	=21	=21
2.Cn	8E]	1.ryy	8gn]
.	8F#	.	8a
.	8Gn	.	8gn
.	[2.A	.	8f#
.	.	.	8g
.	.	.	8e
[4.BB	.	.	8d#
.	.	.	8c#
.	.	.	8B
8BB]	8A]	.	8ccn
8C#	8G#	.	8b
8D#	8F#	.	8a#
=22	=22	=22	=22
4E	[4.E	1.ryy	8an
.	.	.	8g#
8AA#	.	.	8gn
4.BB	8E]	.	16f#
.	.	.	16g#
.	8D#	.	8a
.	8An	.	8d#
2.C#	8G#	.	[2.e
.	8E	.	.
.	8G#	.	.
.	8A	.	.
.	8G#	.	.
.	8A	.	.
=23	=23	=23	=23
*	*	*staff:2	*
2.GG#	2.E	8r	2.e_
.	.	8G#	.
.	.	8B	.
.	.	8dn	.
.	.	8c#	.
.	.	8d	.
2.AA	8AA	[4.c#	4.e_
.	8C#	.	.
.	8E	.	.
.	8A	4c#]	4e]
.	8G#	.	.
.	8A	8cn	8d#X
=24	=24	=24	=24
1.EE	1.G#	1.B	1.e
==	==	==	==
*-	*-	*-	*-
!!!AFR:  prelude
!!!EFL:  17/96
!!!END:  1994/01/12/
!!!VID:  1197861189 Bach, BWV 854-01
!!!AST:  Baroque
!!!OCY:  Deutschland
!!!ODT:  1722///
!!!PDT:  1801///
!!!EED:  Walter Hewlett
!!!ENC:  Walter Hewlett
!!!YOR:  Bach Gesellschaft Edition xiv
!!!AFT:  enhanced SCORE
!!!RDT:  2011/10/07/ by Andreas Kornstaedt using massScr2hmd
!!!SCA1: Thematisch-systematisches Verzeichnis der musikalischen Werke 
!!!SCA2: Johann Sebastian Bach: Bach-Werke-Verzeichnis (Schmieder)
!!!YEC1: Copyright 1994, 2000 Center for Computer Assisted Research 
!!!YEC2: in the Humanities
!!!YEM1: Rights to all derivative editions reserved.
!!!YEM2: Refer to licensing agreement for further details.
!!!YEN:  United States of America
!!!ref:  @{OTL}, @{SCT}
!!muse2ps: T^@{OTL} @{ONM} in @{OKY}^C^J.S. Bach\n@{SCT}-@{OMV}^
!!muse2ps: u^@{OPR@ENG}, @{OVM@ENG}^j
